src/assets/duotone/FolderOpen.svg

<svg width="24" height="24" viewBox="0 0 24 24"  xmlns="http://www.w3.org/2000/svg">
<path d="M21.0602 11.8201L20.9002 11.6001C20.6202 11.2601 20.2902 10.9901 19.9102 10.7901C19.4002 10.5001 18.8202 10.3501 18.2202 10.3501H5.7702C5.1702 10.3501 4.6002 10.5001 4.0802 10.7901C3.6902 11.0001 3.3402 11.2901 3.0502 11.6501C2.4802 12.3801 2.2102 13.2801 2.3002 14.1801L2.6702 18.8501C2.8002 20.2601 2.9702 22.0001 6.1402 22.0001H17.8602C21.0302 22.0001 21.1902 20.2601 21.3302 18.8401L21.7002 14.1901C21.7902 13.3501 21.5702 12.5101 21.0602 11.8201ZM14.3902 17.3401H9.6002C9.2102 17.3401 8.9002 17.0201 8.9002 16.6401C8.9002 16.2601 9.2102 15.9401 9.6002 15.9401H14.3902C14.7802 15.9401 15.0902 16.2601 15.0902 16.6401C15.0902 17.0301 14.7802 17.3401 14.3902 17.3401Z" />
<path opacity="0.4" d="M3.37988 11.31C3.59988 11.11 3.81988 10.93 4.07988 10.79C4.58988 10.5 5.16988 10.35 5.76988 10.35H18.2299C18.8299 10.35 19.3999 10.5 19.9199 10.79C20.1799 10.93 20.4099 11.11 20.6199 11.32V10.79V9.82C20.6199 6.25 19.5299 5.16 15.9599 5.16H13.5799C13.1399 5.16 13.1299 5.15 12.8699 4.81L11.6699 3.2C11.0999 2.46 10.6499 2 9.21988 2H8.03988C4.46988 2 3.37988 3.09 3.37988 6.66V10.8V11.31Z" />
</svg>

<?xml version="1.0" encoding="UTF-8"?>
<svg width="24" height="24" viewBox="0 0 24 24" xmlns="http://www.w3.org/2000/svg">
 <path d="m21.06 11.82-0.16-0.22c-0.28-0.34-0.61-0.61-0.99-0.81-0.51-0.29-1.09-0.44-1.69-0.44h-12.45c-0.6 0-1.17 0.15-1.69 0.44-0.39 0.21-0.74 0.5-1.03 0.86-0.57 0.73-0.84 1.63-0.75 2.53l0.37 4.67c0.13 1.41 0.3 3.15 3.47 3.15h11.72c3.17 0 3.33-1.74 3.47-3.16l0.37-4.65c0.09-0.84-0.13-1.68-0.64-2.37zm-6.67 5.52h-4.79c-0.39 0-0.7-0.32-0.7-0.7s0.31-0.7 0.7-0.7h4.79c0.39 0 0.7 0.32 0.7 0.7 0 0.39-0.31 0.7-0.7 0.7z"/>
 <path d="m3.3799 11.31c0.22-0.2 0.44-0.38 0.7-0.52 0.51-0.29 1.09-0.44 1.69-0.44h12.46c0.6 0 1.17 0.15 1.69 0.44 0.26 0.14 0.49 0.32 0.7 0.53v-1.5c0-3.57-1.09-4.66-4.66-4.66h-2.38c-0.44 0-0.45-0.01-0.71-0.35l-1.2-1.61c-0.57-0.74-1.02-1.2-2.45-1.2h-1.18c-3.57 0-4.66 1.09-4.66 4.66v4.65z" opacity=".4"/>
</svg>
